X: 61
T: MADAME FREDERICK'S
%R: strathspey
B: Jean White "100 Popular Hornpipes, Reels, Jigs and Country Dances", Boston 1880 p.26
F: http://www.loc.gov/resource/sm1880.09124.0#seq-1
Z: 2014 John Chambers <jc:trillian.mit.edu>
M: C|
L: 1/16
K: A
% - - - - - - - - - - - - - - - - - - - - - - - - - - - - -
|:\
A,3B,C3D E3FE3C | A,3CE3C A,A3A3c |\
A,3B,C3D E3FE3C | B,2Bc dcBA GB3B3c |
A,3B,C3D E3FE3C | A,3CE3C A,2A4cd |\
e3cA3E F3df3e | d3cB3A GB3B3c :|
|:\
A3Ac3A e3Ac3A | E3Ac3A fedc B3c |\
A3Ac3A e3Ac3A | F3G FEDC B,2B4c2 |
A3Ac3A e3Ac3A | E3Ac3e fedc B3c |\
A3BA3E F3GF3D | E3DC3B, A,4 z4 H:|
% - - - - - - - - - - - - - - - - - - - - - - - - - - - - -

%%sep 1 1 500
%%sep 1 1 500
